!!!id: bhatk3199a1
!!!vol: 3
!!!page: 199
!!!antara: Jiski  nahin
!!!raag: bihag
!!!taal: teental
!!!tempo: madhyalaya
**kern
!!data: // >mP  P  P  -/  >S'N  -  >DN  -/  S'  S'  -  S'/  >NS'  R'  S'  -/
==1
f#q
4g
4g
2g
=
ccq
2b
aq
2b
=
4cc
2cc
4cc
=
bq
4cc
4dd
2cc
!!data: // >NS'  -  %S'  -/  N  -  P  -/  >mP  -  >S'N  N/  S'  >DN  %P  -/
==2
bq
2cc
2ccS
=
2b
2g
=
f#q
2g
ccq
4b
4b
=
4cc
aq
4b
2gS
!!data: // >SN,  S  >MG  M/  P  P  >S'N  S'/  G'R'  S'N  DP  MG/  MD  PM  GR  S-/
==3
cq
4B
4c
fq
4e
4f
=
4g
4g
ccq
4b
4cc
=
8ee
8dd
8cc
8b
8a
8g
8f
8e
=
8f
8a
8g
8f
8e
8d
4c
==
*-
